X: 24
T: Star Of Munster, The
Z: John E Roche
S: https://thesession.org/tunes/197#setting46801
R: reel
M: 4/4
L: 1/8
K: Gmaj
BAGB AFDE|=F2 E/F/G FDCF|DG^FA GABc|dgge fdcA|
BAGB AFDE|=F2 E/F/G FDCF|DG^FA GABc|d/c/B c/B/A BGGA|
BAGB AGFA|GFDE =F/E/D CA,|G,GGF GABc|dgge fdcA|
BG G/F/G A=F F/E/F|G=FDE F/E/D CA,|G,GGF GABc|d/c/B c/B/A BGGB||
|:dggf gd d/d/d|gdad gdde|=f2 eg fc c/c/c|fgag fdcA|
dggf gd d/d/d|gdad gdde|=f3 a g2 ^fg|1 a/g/f g/f/e fdd^c:|2 a/g/f g/f/e fd d2||

